packages/dnb-eufemia/assets/icons/vintage_car.svg

<svg width="16" height="16" viewBox="0 0 16 16" fill="none" xmlns="http://www.w3.org/2000/svg">
<path d="M13.1333 9.83333V7.54167M13.1333 9.83333C14.1643 9.83333 15 10.6541 15 11.6667C15 12.6792 14.1643 13.5 13.1333 13.5C11.7142 13.5 10.8205 11.9314 11.5164 10.75M13.1333 9.83333C12.4424 9.83333 11.8391 10.202 11.5164 10.75M13.1333 7.54167V5.25M13.1333 7.54167C13.1333 7.04239 12.7084 6.625 12.2 6.625H9.4M9.4 6.625V2.5M9.4 6.625H5.66667M9.4 2.5L10.8 2.95833M9.4 2.5H5.66667M5.66667 6.625V2.5M5.66667 6.625H1.93333M5.66667 2.5H2.86667C2.35831 2.5 1.93333 2.91739 1.93333 3.41667V6.625M11.5164 10.75H4.48361M4.48361 10.75C3.9739 9.8846 2.80914 9.58102 1.93333 10.0786M4.48361 10.75C5.17946 11.9314 4.28585 13.5 2.86667 13.5C1.83574 13.5 1 12.6792 1 11.6667C1 10.9881 1.37539 10.3956 1.93333 10.0786M1.93333 10.0786V6.625" stroke="black" stroke-width="1.5" stroke-linecap="round" stroke-linejoin="round"/>
</svg>

<svg width="16" height="16" viewBox="0 0 16 16" fill="none" xmlns="http://www.w3.org/2000/svg"><path d="M13.133 9.833V7.542m0 2.291c1.031 0 1.867.821 1.867 1.834 0 1.012-.836 1.833-1.867 1.833-1.419 0-2.313-1.569-1.617-2.75m1.617-.917c-.69 0-1.294.369-1.617.917m1.617-3.208V5.25m0 2.292c0-.5-.425-.917-.933-.917H9.4m0 0V2.5m0 4.125H5.667M9.4 2.5l1.4.458M9.4 2.5H5.667m0 4.125V2.5m0 4.125H1.933M5.667 2.5h-2.8a.934.934 0 0 0-.934.917v3.208m9.583 4.125H4.484m0 0c-.51-.865-1.675-1.169-2.55-.671m2.55.671c.695 1.181-.198 2.75-1.617 2.75C1.836 13.5 1 12.68 1 11.667c0-.679.375-1.271.933-1.588m0 0V6.625" stroke="#000" stroke-width="1.5" stroke-linecap="round" stroke-linejoin="round"/></svg>
